X:1
T:Dixit Dominus Tenor
T:Dixit Dominus Tenor
L:1/8
Q:1/4=70
M:4/4
K:Bb
V:1 treble-8 nm="Piano" snm="Pno."
V:1
 d2 dc Be/e/ Bc/c/ | dddd z2 dd | z2 dd cc fB/B/ | ff dB/B/ ff z2 | z4 BFBc | de/d/ dc/B/ B2 d2 | %6
w: Dix- dix- it Do- mi- nus Do- mi- no|me- o, dix- it dix- it,|dix- it, dix- it, Do- mi- nus,|dix- it Do- mi- no me- o,|dix- it, dix- it|Do- mi- nus Do- mi- no me- o,|
 de fg/g/ de fe/e/ | fcBd ^ff z2 | AB dB/B/ dA z2 | AB dB/B/ dAAA | z2 dd z4 | z8 | z8 | z8 | z8 | %15
w: dix- it Do- mi- nus, dix- it Do- mi- no|me- o, dix- it, dix- it,|dix- it Do- mi- no me- o,|dix- it Do- mi- no me- o dix- it,|dix- it|||||
 z8 | z8 | z8 | z8 | dAd=e fg/f/ fe/d/ | d8 | d2 dd z2 dd | z2 cc z2 cc | dd f2 _e4 | d4 c4 | %25
w: ||||dix- it, dix- it Do- mi- nus Do- mi- no|me|o, dix- it, dix- it,|dix- it, dix- it,|dix- it Se- *||
 f2 g4 fe | dBed cAdc | BGcB _AFBA | Gc c2 B2 z2 | z8 | z8 | z4 z d/d/ BG | z A/A/ dd ddBG | %33
w: ||* * * * * * de a|dex- tris me- is|||do- nec po- nam|do- nec po- nam i- ni- mi- cos|
 z e/e/ ff ff z f/f/ | gg f2 fd/d/ dd | z d/d/ dd d2 ed | Bd/d/ dd z ^f/f/ gd | dagg gg z =f/f/ | %38
w: i- ni- mi- cos tu- os i- ni-|mi- cos tu- os, do- nec po- nam|i- ni- mi- cos tu- * *|os, do- nec po- nam, do- nec, do- nee|po- nam i- ni- mi- cos do- nec|
 c=e z f/f/ cgff | ff z _e/e/ Bd z e/e/ | Bfee ee d2 | B2 z2 z4 | z2 z d BG dd/d/ | %43
w: po- nam do- nec- po- nam i- ni-|mi- cos, do- nec po- nam, do- nec|po- nam i- ni- mi- cos tu-|os,|sca- bel- lum pe- dum tu-|
 e3 d =e^f/f/ gd | dcBA G2 A2 | G/A/B/c/ d2 dc B2 | c2 dG A2 z ^f/f/ | cd z =e/e/ cc z2 | z8 | z8 | %50
w: o- rum, pe- dum tu- o- *|* * * * * rum,|pe- * dum- tu- o- * * *|* * * rum, do- nec|* nam i- ni- mi- cos|||
 z f/f/ dB z f/f/ dB | ccfe df z f/f/ | defe defe | dffe afge | fffe afge | ffdd dddd | %56
w: do- nec po- nam, do- nec po- nam,|po- nam i- ni- mi- cos, do- nec|po- nam i- ni- mi- cos, i- ni-|mi- cos tu- * * * * *|* os, tu- * * * * *|* os, do- nec po- nam i- ni-|
 d2 dG cc c=B/A/ | d2 d2 z2 z e/d/ | cded cd z e/d/ | ed z e/d/ cdf=e | d=e z f/e/ defe | %61
w: mi- cos, sca- bel- lum pe- dum tu-|o- rum, do- nec|po- nam i- ni- mi- cos, do- nec|po- nam, do- nec po- nam i- ni-|mi- cos, i- ni- mi- cos, i- ni-|
 d2 df Bd Gd/d/ | =ee z2 z2 ff | ^c=e z2 z2 ff | ^cc ff/f/ dd/d/ =e2 | %65
w: mi- cos, sca- bel- lum pe- dum tu-|o- rum dix- it,|dix- it, dix- it,|dix- it Do- mi- nus Do- mi- no me-|
 =c2"^[Solo]" f2 f/=e/d/c/ B/A/B/G/ | =e4 e/g/e/c/ A/F/c/A/ | d4 d/c/B/A/ G/F/=E/D/ | %68
w: o Se * * * * * * * *|||
"^[Tutti tenore]" ^cf/f/ cA Bf z2 | ^cf/f/ cA cc/f/ cA | ^cc z2 z4 | D4 F4 | A4 A2 z d | %73
w: Se- de- a dex- tris me- is,|se- de a dex- tris me- is, a dex- tris|me- is,|do nec|po nam, sca|
 ^cA=eg- gf/e/ fe/d/ | =e3 ^f/g/ f4 | ^fdgf gd z g | =ec de/e/ =fc f/_e/d/c/ | d3 f- f=e/d/ e2 | %78
w: bel- lum pe- * * * * * * *||* * dum tu- o rum, sca-|ben- lim pe- dum tu- o- * * * * *||
 f2 z2 z cd=e | fABG Acd=e | f2 z2 z2 z d | =ee z d ee dd/d/ | d=B z g dd z c | dd cc/c/ cA z _B | %84
w: rum, sca- bel- lum|pe- * dum tu- o- * * *|rum, sca-|bel- lum, sca- bel- lum pe- dum tu-|o- rum, sca- bel- lum, sca-|bel- lum pe- dum tu- o- rum, sca-|
 cc z B cc BB/B/ | BG z2 d4 | d8 | c4 c4 | c4 B4- | B4 B4 | A4 A2 z g | ec fe/f/ dB e2- | %92
w: bel- lum, sca- bel- lum pe- dum tu-|o- rum, sca-|bel-|* lum|pe- dum-|* tu-|o- rum, sca-|bel- lum pe- dum tu- o- * *|
 ecfe dBed | cAdc BG c2 | dd z B c=A eB/B/ | Gdcd B2 d2 | B2 z B c=A eB/B/ | Gdcd B2 d2 | %98
w: ||* rum, sca- bel- lum pe- dum tu-|o- * * * * *|rum, sca- bel- lum pe- dum tu-|o- * * * * *|
 B2 dd z2 dd | dd z2 z4 | z8 |] %101
w: rum, dix- it, dix- it,|dix- it||

